X:67
T:T040A- The Tulip (The Wearing of the Green)
S:from James Oswald's 'Airs for the Seasons'
N:'copyright 13 Oct 1747'
Q:1/4=120
L:1/8
Q:112
M:C|
K:G
d>c|{c/2}B2B>B B>d~c>B|{B/2}A2A>A A2 B>c|\
B2(3dcB ~A>GA>B|G2G>GG2::g>f|\
~e2d4(3 GBd|{d/2} c2 B>B B2g>f|
~e2d4c>B|~A>GA>B D2d>c|{c/2}B2B2B>gd>B|\
{B/2}A2A2A>Bc>d|e>gd>B A>cB>A|\
G2G>GG2:|]

